src/components/Icon/utils/svgsOptimized/color.svg

<?xml version="1.0" encoding="utf-8"?><svg width="24" height="24" xmlns="http://www.w3.org/2000/svg" viewBox="0 0 24 24"><path fill-rule="evenodd" clip-rule="evenodd" d="M12.2 5C8.22 5 5 8.22 5 12.2s3.22 7.2 7.2 7.2c2.4 0 2.4-1.48 2.4-1.8 0-1.6-2.4-1.38-2.4-3 0-.66.53-1.15 1.5-1.2.97-.05 1.97-.05 3.3 0 1.33.05 2.4-1.07 2.4-2.4 0-3.04-3.84-6-7.2-6Zm-3.6 9.6c-.66 0-1.2-.54-1.2-1.2 0-.66.54-1.2 1.2-1.2.66 0 1.2.54 1.2 1.2 0 .66-.54 1.2-1.2 1.2Zm1.8-3.6c-.99 0-1.8-.81-1.8-1.8s.81-1.8 1.8-1.8 1.8.81 1.8 1.8-.81 1.8-1.8 1.8Zm4.8 0c-.66 0-1.2-.54-1.2-1.2 0-.66.54-1.2 1.2-1.2.66 0 1.2.54 1.2 1.2 0 .66-.54 1.2-1.2 1.2Z"/></svg>

<svg width="24" height="24" viewBox="0 0 24 24"  xmlns="http://www.w3.org/2000/svg">
<path fill-rule="evenodd" clip-rule="evenodd" d="M12.2 5C8.22 5 5 8.22 5 12.2C5 16.18 8.22 19.4 12.2 19.4C14.6 19.4 14.6 17.92 14.6 17.6C14.6 16 12.2 16.22 12.2 14.6C12.2 13.94 12.73 13.45 13.7 13.4C14.67 13.35 15.67 13.35 17 13.4C18.33 13.45 19.4 12.33 19.4 11C19.4 7.96 15.56 5 12.2 5ZM8.6 14.6C7.94 14.6 7.4 14.06 7.4 13.4C7.4 12.74 7.94 12.2 8.6 12.2C9.26 12.2 9.8 12.74 9.8 13.4C9.8 14.06 9.26 14.6 8.6 14.6ZM10.4 11C9.41 11 8.6 10.19 8.6 9.2C8.6 8.21 9.41 7.4 10.4 7.4C11.39 7.4 12.2 8.21 12.2 9.2C12.2 10.19 11.39 11 10.4 11ZM15.2 11C14.54 11 14 10.46 14 9.8C14 9.14 14.54 8.6 15.2 8.6C15.86 8.6 16.4 9.14 16.4 9.8C16.4 10.46 15.86 11 15.2 11Z" />
</svg>
